X: 37081
T: Silver Spur, The
R: jig
M: 6/8
K: Dmajor
A|"D"d2 d dcB|"Bm"ABA FED|"Em"EFG "F#m"FGA|"G"GAB "A"ABc|
"Bm"dBc def|"G"gfe dcB|"D"AGF "G"EFG|1 "A7"A,B,C "D"D2:|2 "A7"A,B,C "D"D2 D||
|:"D"[F2A2] [FA] FED|"Em"EFG "A7"ABA|"D"[F2A2] [FA] FED|"C"~E3 "G"DB,A,|
"D"[F2A2] [FA] FED|"Em"EFG "A7"ABA|"G"EFG "D"AFG|1 "A7"ABc "D"d2 D:|2 "A7"ABc "D"d2||

